X: 11708
T: Eklunda
R: waltz
M: 3/4
K: Gmajor
d|gf/g/ bg dB|c/B/c/d/ e/g/e/c/ Ac|BA/B/ c/d/c/A/ B/c/B/G/|Ad d3 f|
gf/g/ bg dB|c/B/c/d/ e/g/e/c/ Ac|BA/B/ c/d/c/A/ B/c/B/G/|A/B/A/F/ G3:|
A|B>B cc BB|Ad d4|B>B cc BB|A/B/A/F/ D4|
B>B cc BB|Ad d3 c/B/|GA/B/ c/d/c/A/ B/c/B/G/|A/B/A/F/ G3:|

